src/assets/logos/RACE.svg

<svg fill="none" height="836" width="836" xmlns="http://www.w3.org/2000/svg"><circle cx="418" cy="418" fill="#d52626" r="418"/><circle cx="418" cy="418" r="346" stroke="#fff" stroke-width="60"/><path d="M506.789 492.16c23.847-11.418 42.813-28.156 56.899-50.213 14.085-22.057 21.122-47.854 21.111-77.391 0-21.269-3.713-40.764-11.139-58.485-7.427-17.72-17.887-32.884-31.382-45.492-13.492-12.6-29.425-22.347-47.801-29.24S455.962 221 434.059 221h-131.05L238 319.654h196.076c14.078 0 25.614 4.432 34.608 13.294s13.492 20.777 13.492 35.744-4.498 26.88-13.492 35.738c-8.994 8.859-20.53 13.29-34.608 13.294H303.009L238 507.522h155.021L469.271 605H603l-96.194-112.84z" fill="#fff"/></svg>

<svg width="836" height="836" viewBox="0 0 836 836" fill="none" xmlns="http://www.w3.org/2000/svg">
<circle cx="418" cy="418" r="418" fill="#D52626"/>
<circle cx="418" cy="418" r="346" stroke="white" stroke-width="60"/>
<path d="M506.789 492.16C530.636 480.742 549.602 464.004 563.688 441.947C577.773 419.89 584.81 394.093 584.799 364.556C584.799 343.287 581.086 323.792 573.66 306.071C566.233 288.351 555.773 273.187 542.278 260.579C528.786 247.979 512.853 238.232 494.477 231.339C476.101 224.446 455.962 221 434.059 221H303.009L238 319.654H434.076C448.154 319.654 459.69 324.086 468.684 332.948C477.678 341.81 482.176 353.725 482.176 368.692C482.176 383.659 477.678 395.572 468.684 404.43C459.69 413.289 448.154 417.72 434.076 417.724H303.009L238 507.522H393.021L469.271 605H603L506.806 492.16H506.789Z" fill="white"/>
</svg>
